X: 1
T:The Troy's Strathspey
M:C
L:1/8
Q:80
C:Bruce Gandy
S:Strathspey
K:HP
[| {gf}g3/2f/2{g}e3/2d/2{g}B/2e3/2{A}e3/2f/2|
{gf}g2{GdG}((3g3/2e/2{g}fed){gBG}B2|
{Gdc}d3/2e/2{gde}d3/2B/2{g}e3/2f/2{gf}g3/2f/2|  !
{gef}e3/2d/2{gde}d/2{e}G3/2{g}A2{GdGe}A3/2B/2{gf}g3/2f/2{g}e3/2d/2{g}B/2
e3/2{A}e3/2f/2|
{gf}g2{GdG}((3g3/2e/2{g}fed){gBG}B2|
{Gdc}d3/2e/2{gde}d3/2B/2{g}((3efg){ef}e3/2d/2|  !
{gBd}B/2{e}G3/2{dc}d3/2B/2{g}A2{GdGe}A3/2{d}B/2|] [|
{g}((3dB{G}B){gf}((3g3/2e/2{g}dB{G}B){Gdc}d3/2e/2|
{gf}g2{GdG}((3g3/2e/2{g}fed){gBG}B2|  !
{Gdc}d3/2e/2{gde}d3/2B/2{g}e3/2f/2{gf}g3/2f/2|
{gef}e3/2d/2{gde}d/2{e}G3/2{g}A2{GdGe}((3A3/2B/2{g}dB{G}B){gf}((3g3/2e/2
{g}dB{G}B){Gdc}d3/2e/2|
{gf}g2{GdG}((3g3/2e/2{g}fed){gBG}B2|  !
{Gdc}d3/2e/2{gde}d3/2B/2{g}((3efg){ef}e3/2d/2|
{gBd}B/2{e}G3/2{dc}d3/2B/2{g}A2{GdGe}A3/2{d}B/2|]
